icons/tree.svg

<svg xmlns="http://www.w3.org/2000/svg" viewBox="0 0 24 24" fill="currentColor">
  <path d="M6.75 9c0-2.89949 2.35051-5.25 5.25-5.25 2.8995 0 5.25 2.35051 5.25 5.25 0 2.6449-1.9558 4.8329-4.5 5.1968v-.972l2.6359-1.5816c.3551-.2131.4703-.6738.2572-1.029-.2131-.3551-.6738-.4703-1.029-.2572L12.75 11.4755V9c0-.41421-.3358-.75-.75-.75s-.75.33579-.75.75v1.1893l-.7197-.71963c-.2929-.29289-.76774-.29289-1.06063 0s-.29289.76773 0 1.06063L11.25 12.3107v.4766c-.0002.009-.0002.018 0 .027v1.3825C8.70578 13.8329 6.75 11.6449 6.75 9Zm4.5 6.7088c-3.37496-.3731-6-3.2344-6-6.7088 0-3.72792 3.02208-6.75 6.75-6.75 3.7279 0 6.75 3.02208 6.75 6.75 0 3.4744-2.625 6.3357-6 6.7088V21c0 .4142-.3358.75-.75.75s-.75-.3358-.75-.75v-5.2912Z"/>
</svg>

<svg width="24" height="24" viewBox="0 0 24 24" fill="none" xmlns="http://www.w3.org/2000/svg">
<path fill-rule="evenodd" clip-rule="evenodd" d="M6.75 9C6.75 6.10051 9.10051 3.75 12 3.75C14.8995 3.75 17.25 6.10051 17.25 9C17.25 11.6449 15.2942 13.8329 12.75 14.1968V13.2248L15.3859 11.6432C15.741 11.4301 15.8562 10.9694 15.6431 10.6142C15.43 10.2591 14.9693 10.1439 14.6141 10.357L12.75 11.4755V9C12.75 8.58579 12.4142 8.25 12 8.25C11.5858 8.25 11.25 8.58579 11.25 9V10.1893L10.5303 9.46967C10.2374 9.17678 9.76256 9.17678 9.46967 9.46967C9.17678 9.76256 9.17678 10.2374 9.46967 10.5303L11.25 12.3107V12.7873C11.2498 12.7963 11.2498 12.8053 11.25 12.8143V14.1968C8.70578 13.8329 6.75 11.6449 6.75 9ZM11.25 15.7088C7.87504 15.3357 5.25 12.4744 5.25 9C5.25 5.27208 8.27208 2.25 12 2.25C15.7279 2.25 18.75 5.27208 18.75 9C18.75 12.4744 16.125 15.3357 12.75 15.7088V21C12.75 21.4142 12.4142 21.75 12 21.75C11.5858 21.75 11.25 21.4142 11.25 21V15.7088Z" fill="black"/>
</svg>
